X:1410
T:Life let us cherish
A:Wyresdale, Lancashire
B:E and J Winder, 1835-41
L:1/8
M:6/8
O:England
Z:Richard Robinson 
%%TUNEURL: http://www.leeds.ac.uk/music/Info/RRTuneBk/gettune/00001220.html
%%ID:00001220
K:G
B3 cBc | d3 gg2 | G3 AGA | BcB A3 | B3 cBc | d2g (ge)c | B3 AGA | G3- G2 ::
d | \
d2c ABc | d2B G2d | d2c ABc | d2B G2d | \
e2c g2e | d2B g2d | ded dcB | HB3 AcB HA3 |
B3  cBc | d2g g3  | G3  AGA | BcB A3 | \
B3  cBc | d2g gec | B3  AGA | G3- G2 ::
